X: 7552
T: Cock O' The North
R: jig
M: 6/8
K: Gmajor
M:12/8
|:G2 A B2 B B2A GBd|efg BdB BAG A3|
G2 A BdB BAB GBd|efg BdB ABA G3:|
|:d2 e g2 d e2 d gag|e2 d B3 BAG A2 d|
[1 g2 d e2 d gag e2 d|B3 ABA G2:|2 gag gag gag e2 d|BdB ABA G2||ged||

